X: 1
T:Turkish March.
M:6/8
L:1/8
K:G
B2B Bcd|G2G  GFG|A2A ABc |   
BAB G2 | A   |B2B Bcd|^cdB A2g|fed AB^c|[1 dAF D2:|[2 d2d d2||
d|e2d def|e2d e2d|c2B ABG|
FEF D2 | D|G2G GAF|E2E EFG|A2A ABG|FEF Ddc|BAG DEF|G3 G2:|